X: 502
T: U Naseto Selo
O: Macedonia
M:2/4
L:1/8
Q:1/4=180
K:F
|:A4  |GFGA|F4  |F2G2|A2A2|GFGA|F4  |z4 :|
  c2c2|c2c2|c2B2|A4  |B2B2|B2B2|c2B2|A4 |
  A4  |GFGA|F4  |F2G2|A2A2|GFGA|F4  |z4 |



